flags/fr-20r.svg

<svg width="512" height="512" viewBox="0 0 512 512" fill="none" xmlns="http://www.w3.org/2000/svg">
<rect width="512" height="512" fill="var(--flag-palette-white, #eeeeee)"/>
<path d="M345.101 216.8C345.124 194.323 337.421 172.521 323.282 155.049C309.142 137.576 289.427 125.495 267.439 120.831C245.452 116.166 222.529 119.201 202.513 129.428C182.498 139.654 166.605 156.45 157.501 177L145.501 220.8L156.501 232L134.301 276.5L156.601 287.6L145.401 298.7V310L156.601 321.1V343.4L167.701 354.4L201.101 343.4C201.101 343.4 201.101 354.4 212.201 365.6C223.301 376.8 234.501 399 234.501 399C234.501 399 267.901 410.1 290.101 376.8C312.401 343.4 334.701 332.2 334.701 332.2L313.201 289.3C323.276 280.121 331.326 268.941 336.836 256.475C342.346 244.008 345.195 230.53 345.201 216.9L345.101 216.8Z" fill="var(--flag-palette-black, #333333)"/>
<path d="M353.1 254.3C398.4 246.7 405.9 158.1 405.9 158.1H343.6C375.8 236.1 342.1 241.3 342.1 241.3C284.564 212.948 226.693 185.279 168.5 158.3C167.2 160 162.6 164.3 157 178.1C151.4 191.8 150 204.1 150 204.1C210.104 225.942 270.51 246.944 331.2 267.1C340.4 273 351.6 290.8 345.3 343.7L405.3 326.8C405.3 326.8 384.9 272.7 353.1 254.3Z" fill="var(--flag-palette-mid-grey-3, #acabb1)"/>
</svg>

<svg xmlns="http://www.w3.org/2000/svg" width="512" height="512" fill="none"><path fill="var(--flag-palette-white, #eeeeee)" d="M0 0h512v512H0z"/><path fill="var(--flag-palette-black, #333333)" d="M345.1 216.8A98 98 0 0 0 157.5 177l-12 43.8 11 11.2-22.2 44.5 22.3 11.1-11.2 11.1V310l11.2 11.1v22.3l11.1 11 33.4-11s0 11 11.1 22.2a164 164 0 0 1 22.3 33.4s33.4 11.1 55.6-22.2c22.3-33.4 44.6-44.6 44.6-44.6l-21.5-42.9a98 98 0 0 0 32-72.4z"/><path fill="var(--flag-palette-mid-grey-3, #acabb1)" d="M353.1 254.3c45.3-7.6 52.8-96.2 52.8-96.2h-62.3c32.2 78-1.5 83.2-1.5 83.2q-86.3-42.5-173.6-83c-1.3 1.7-5.9 6-11.5 19.8-5.6 13.7-7 26-7 26a6873 6873 0 0 0 181.2 63c9.2 5.9 20.4 23.7 14.1 76.6l60-16.9s-20.4-54.1-52.2-72.5"/></svg>
